X: 10553
Q: "Slow."
M: C
L: 1/8
K: D
d3e (fe)(d^c) | d2A2 A3F |\
d3e (fe)(d^c) | d2A2 A3F |\
d3e f2d2 | e3^c A2A2 |\
d3e f2(ed) | e2=c2 c2(df) |
f3d (fe)(d^c) | d3e Hf2F2 |\
d3e f2d2 | e3^c A2A2 |\
d3e {g}f2(ed) | e2=c2 Hc2 f>g |\
a2f2 (ag)(fe) | (de)(fg) Ha2 F2 |\


